svg/fluentui-system-icons/ic_fluent_building_multiple_24_filled.svg

<svg width="24" height="24" viewBox="0 0 24 24" fill="none" xmlns="http://www.w3.org/2000/svg">
<path d="M7 16C7.55228 16 8 15.5523 8 15C8 14.4477 7.55228 14 7 14C6.44772 14 6 14.4477 6 15C6 15.5523 6.44772 16 7 16ZM8 18C8 18.5523 7.55228 19 7 19C6.44772 19 6 18.5523 6 18C6 17.4477 6.44772 17 7 17C7.55228 17 8 17.4477 8 18ZM7 13C7.55228 13 8 12.5523 8 12C8 11.4477 7.55228 11 7 11C6.44772 11 6 11.4477 6 12C6 12.5523 6.44772 13 7 13ZM8 9C8 9.55228 7.55228 10 7 10C6.44772 10 6 9.55228 6 9C6 8.44771 6.44772 8 7 8C7.55228 8 8 8.44771 8 9ZM7 7C7.55228 7 8 6.55228 8 6C8 5.44772 7.55228 5 7 5C6.44772 5 6 5.44772 6 6C6 6.55228 6.44772 7 7 7ZM14 4.25V5H18.75C19.9926 5 21 6.00736 21 7.25V20.75C21 21.1642 20.6642 21.5 20.25 21.5H17.25V18.75C17.25 18.4739 17.0261 18.25 16.75 18.25H14.25C13.9739 18.25 13.75 18.4739 13.75 18.75V21.5H3.75C3.33579 21.5 3 21.1642 3 20.75V4.25C3 3.00736 4.00736 2 5.25 2H11.75C12.9926 2 14 3.00736 14 4.25ZM5.25 3.5C4.83579 3.5 4.5 3.83579 4.5 4.25V20H10V7.25C10 6.00736 11.0074 5 12.25 5H12.5V4.25C12.5 3.83579 12.1642 3.5 11.75 3.5H5.25ZM18 15C18 14.4477 17.5523 14 17 14C16.4477 14 16 14.4477 16 15C16 15.5523 16.4477 16 17 16C17.5523 16 18 15.5523 18 15ZM14 16C14.5523 16 15 15.5523 15 15C15 14.4477 14.5523 14 14 14C13.4477 14 13 14.4477 13 15C13 15.5523 13.4477 16 14 16ZM18 12C18 11.4477 17.5523 11 17 11C16.4477 11 16 11.4477 16 12C16 12.5523 16.4477 13 17 13C17.5523 13 18 12.5523 18 12ZM14 13C14.5523 13 15 12.5523 15 12C15 11.4477 14.5523 11 14 11C13.4477 11 13 11.4477 13 12C13 12.5523 13.4477 13 14 13ZM18 9C18 8.44772 17.5523 8 17 8C16.4477 8 16 8.44772 16 9C16 9.55228 16.4477 10 17 10C17.5523 10 18 9.55228 18 9ZM14 10C14.5523 10 15 9.55228 15 9C15 8.44772 14.5523 8 14 8C13.4477 8 13 8.44772 13 9C13 9.55228 13.4477 10 14 10Z" fill="#212121"/>
</svg>

<svg xmlns="http://www.w3.org/2000/svg" width="24" height="24"><path d="M7 16a1 1 0 1 0 0-2 1 1 0 0 0 0 2Zm1 2a1 1 0 1 1-2 0 1 1 0 0 1 2 0Zm-1-5a1 1 0 1 0 0-2 1 1 0 0 0 0 2Zm1-4a1 1 0 1 1-2 0 1 1 0 0 1 2 0ZM7 7a1 1 0 1 0 0-2 1 1 0 0 0 0 2Zm7-2.75V5h4.75A2.25 2.25 0 0 1 21 7.25v13.5a.75.75 0 0 1-.75.75h-3v-2.75a.5.5 0 0 0-.5-.5h-2.5a.5.5 0 0 0-.5.5v2.75h-10a.75.75 0 0 1-.75-.75V4.25A2.25 2.25 0 0 1 5.25 2h6.5A2.25 2.25 0 0 1 14 4.25ZM5.25 3.5a.75.75 0 0 0-.75.75V20H10V7.25A2.25 2.25 0 0 1 12.25 5h.25v-.75a.75.75 0 0 0-.75-.75h-6.5ZM18 15a1 1 0 1 0-2 0 1 1 0 0 0 2 0Zm-4 1a1 1 0 1 0 0-2 1 1 0 0 0 0 2Zm4-4a1 1 0 1 0-2 0 1 1 0 0 0 2 0Zm-4 1a1 1 0 1 0 0-2 1 1 0 0 0 0 2Zm4-4a1 1 0 1 0-2 0 1 1 0 0 0 2 0Zm-4 1a1 1 0 1 0 0-2 1 1 0 0 0 0 2Z"/></svg>
